packages/core/src/svgs/brg.svg

<svg width="24" height="24" viewBox="0 0 24 24" fill="none" xmlns="http://www.w3.org/2000/svg">
<g clip-path="url(#clip0_31_7332)">
<path d="M0 0H24V24H0V0Z" fill="#212040"/>
<path d="M9.66425 4.71436C9.3504 4.71548 9.03986 4.77848 8.75039 4.89975C8.46091 5.02102 8.1982 5.19819 7.97727 5.4211C7.75634 5.64402 7.58154 5.90832 7.46287 6.19887C7.3442 6.48941 7.28399 6.80051 7.28568 7.11436V9.3515C7.28568 10.0372 7.79139 11.6144 7.79139 11.6144C8.07441 11.0571 8.4893 10.5775 8.99996 10.2172V6.42864H12.2143C13.8471 6.42864 15.4028 8.03578 15.4028 9.68578C15.4028 11.2715 14.1857 12.6644 12.5443 12.6644C11.79 12.6644 11.0014 12.3215 10.5985 12.1286C10.0843 12.4286 9.62139 13.2858 9.62139 13.7144C10.3757 14.1386 11.6185 14.5715 12.5443 14.5715C15.0814 14.5715 17.1428 12.5744 17.1428 10.0115V9.3515C17.1428 6.78864 15.0857 4.71436 12.5443 4.71436H9.66425Z" fill="#F7B718"/>
<path d="M7.28567 16.8858C7.28567 18.2144 8.35282 19.2858 9.66424 19.2858H12.5442C14.7642 19.2858 16.2085 17.893 16.8128 16.0716C17.1985 14.9101 17.19 13.7273 16.89 12.5573C16.5348 13.202 16.0234 13.7472 15.4028 14.143V14.4858C15.2657 16.003 13.7571 17.5716 12.2142 17.5716H8.99996V14.6487C8.99165 14.1828 9.07794 13.72 9.25361 13.2884C9.42929 12.8567 9.69069 12.4652 10.022 12.1375C10.3533 11.8098 10.7477 11.5527 11.1812 11.3817C11.6147 11.2108 12.0784 11.1296 12.5442 11.143C13.1357 11.143 13.6457 11.3316 14.13 11.6573C14.3442 11.5716 14.9785 10.7144 14.9785 10.0716C14.2486 9.61269 13.4064 9.36359 12.5442 9.35156C11.1446 9.35724 9.80456 9.91838 8.8185 10.9117C7.83245 11.9049 7.28112 13.2491 7.28567 14.6487V16.8858Z" fill="#F7B718"/>
</g>
<defs>
<clipPath id="clip0_31_7332">
<rect width="24" height="24" fill="white"/>
</clipPath>
</defs>
</svg>

<svg xmlns="http://www.w3.org/2000/svg" width="24" height="24" fill="none" viewBox="0 0 24 24"><g clip-path="url(#a)"><path fill="#212040" d="M0 0h24v24H0z"/><path fill="#F7B718" d="M9.664 4.714a2.387 2.387 0 0 0-2.378 2.4v2.238c0 .685.505 2.262.505 2.262A3.84 3.84 0 0 1 9 10.217V6.43h3.214c1.633 0 3.189 1.607 3.189 3.257 0 1.585-1.217 2.978-2.859 2.978-.754 0-1.543-.342-1.946-.535-.514.3-.977 1.157-.977 1.585.755.425 1.997.857 2.923.857 2.537 0 4.599-1.997 4.599-4.56v-.66c0-2.562-2.057-4.637-4.599-4.637z"/><path fill="#F7B718" d="M7.286 16.886c0 1.328 1.067 2.4 2.378 2.4h2.88c2.22 0 3.665-1.393 4.269-3.214.386-1.162.377-2.345.077-3.515a4.4 4.4 0 0 1-1.487 1.586v.343c-.137 1.517-1.646 3.086-3.189 3.086H9v-2.923a3.445 3.445 0 0 1 3.544-3.506c.592 0 1.102.189 1.586.514.214-.085.848-.943.848-1.585a4.7 4.7 0 0 0-2.434-.72 5.28 5.28 0 0 0-5.258 5.297z"/></g><defs><clipPath id="a"><path fill="#fff" d="M0 0h24v24H0z"/></clipPath></defs></svg>
